X:1
T:Covent Garden, 11.11.11.11
T:Covent Garden, 11.11.11.11
T:James J. Bell, 1917
T:Public Domain Courtesy of the Cyber Hymnal™
C:James J. Bell, 1917
Z:Public Domain
Z:Courtesy of the Cyber Hymnal™
%%score 1 2
L:1/8
Q:1/4=80
M:2/4
K:G
V:1 treble 
V:2 bass 
V:1
 [DGB][DGB] [CDA][B,DG] | [CDG]2 [CDF]2 | [EFc][EFc] [DFB][EF^A] | [DGB]4 | %4
 [DGB][DGB] [CDA][B,DG] | [CDG]2 [CDF]2 | [EFc][EFc] [DGB][CDA] | [B,DG]4 | %8
 [DBd][DGB] [CDA][B,DG] | [CDG]2 [CDF]2 | [EFc][EFc] [DFB][EF^A] | [DGB]4 | %12
 [DGB][DGB] [CDA][B,DG] | [=FGd]2 [EGc]2 | [DFB][EFc] [DGB][CDA] | [B,DG]4 |] %16
V:2
 G,,D, G,D, | A,,D, A,D, | D,,D, F,D, | (G,,D,G,D,) | G,,D, G,D, | A,,D, A,D, | D,,D, E,F, | %7
 (G,D, G,,2) | G,,D, G,D, | A,,D, A,D, | D,,D, F,D, | (G,,D,G,D,) | G,,D, G,D, | B,,G, C,G, | %14
 D,2 E,F, | (G,D, G,,2) |] %16

